X:1
T:Olivet, 87.87.47
T:Olivet, 87.87.47
T:G. Hirst, ca. 1889
T:Public Domain Courtesy of the Cyber Hymnal™
C:G. Hirst, ca. 1889
Z:Public Domain
Z:Courtesy of the Cyber Hymnal™
%%score ( 1 2 ) ( 3 4 )
L:1/8
Q:1/4=110
M:2/4
K:G
V:1 treble 
V:2 treble 
V:3 bass 
V:4 bass 
V:1
 [DG]2 [GB]2 | [Fd]2 [Gd]2 | [Ge]2 [Fd]2 | [Gd]2 [GB]2 | [Ac]2 [GB]2 | [FA]2 G2 | [FA]2 [GB]2 | %7
 [FA]4 | [DG]2 [GB]2 | [Fd]2 [Gd]2 | [Ge]2 [Fd]2 | [Gd]2 [GB]2 | [DA]2 [G^c]2 | [Fd]2 [EG]2 | %14
 [DF]2 [^CE]2 | D4 | [FA]3 [FA] | [GB]4 | [GB]4 | [=FB]2 [FB]2 | [EA]2 [EG]2 | [DG]2 [DF]2 | %22
 [DG]4 |] %23
V:2
 x4 | x4 | x4 | x4 | x4 | x2 G2 | x4 | x4 | x4 | x4 | x4 | x4 | x4 | x4 | x4 | D4 | x4 | x4 | x4 | %19
 x4 | x4 | x4 | x4 |] %23
V:3
 [G,B,]2 [G,D]2 | [D,C]2 [G,B,]2 | [C,C]2 [D,A,]2 | [G,B,]2 [G,D]2 | [F,D]2 [G,D]2 | [CD]2 [B,D]2 | %6
 [A,C]2 [G,D]2 | [D,D]4 | [G,B,]2 [G,D]2 | [D,C]2 [G,B,]2 | [C,C]2 [D,A,]2 | [G,B,]2 [G,D]2 | %12
 [F,A,]2 [E,G,]2 | [D,A,]2 [G,B,]2 | A,2 [A,,G,]2 | [D,F,]4 | [D,D]3 [D,D] | [C,E]4 | [G,,D]4 | %19
 [G,D]2 [G,D]2 | [C,C]2 [C,C]2 | (A,B,) [D,C]2 | [G,,B,]4 |] %23
V:4
 x4 | x4 | x4 | x4 | x4 | x4 | x4 | x4 | x4 | x4 | x4 | x4 | x4 | x4 | A,2 x2 | x4 | x4 | x4 | x4 | %19
 x4 | x4 | D,2 x2 | x4 |] %23

